X:1
T:3ème Gymnopédie
T:3ème Gymnopédie
T:Erik Satie
T:Composé par Erik Satie, 1888 - Réécrit sur Musescore par J.L.
C:Erik Satie
Z:Composé par Erik Satie, 1888 - Réécrit sur Musescore par J.L.
%%score { ( 1 2 ) | ( 3 4 ) }
L:1/8
Q:1/4=66
M:3/4
K:C
V:1 treble nm="Piano" snm="Pno."
V:2 treble 
V:3 bass 
V:4 bass 
V:1
"^Lent et grave"!p! z6 | z6 | z6 | z6 |!p!!<(! (a6 | g2 f2 e2!<)! | d2!>(! e2 f2 | e2 d2 c2!>)! | %8
 e6) |!<(! (g4 g2!<)! |!>(! d6- | d6!>)! | d6) | z2 (c2!<(! f2 | g4 a2 | d2!<)! e2 g2 | %16
!>(! B2 A2 G2 | A6 | D6-!>)! | D6) | (e6 |!<(! f2 g2 f2!<)! |!>(! e2 d2 e2- | e6- | e2 d2 c2 | %25
 B2 c2 B2!>)! | A6) | z6 | z6 | z6 | (a6 | g2!<(! f2 e2 | d2 e2 f2 | e2 d2!<)! c2 | e6 | g4 g2 | %36
!>(! c2 B2 A2 | B4 c2 | d6!>)! | e6) | z6 | z6 |!<(! (g4 a2 | d2 e2 f2 | B2 A2 G2!<)! |!>(! A6 | %46
 D6-!>)! | D6) | (e6 |!<(! f2 g2 f2 | e2 d2 e2-!<)! | e6- |!>(! e2 d2 c2 | B2 c2 B2!>)! | A6) | %55
 z6 | z6 | z6 | [CEAc]6- | [CEAc]6 |] %60
V:2
 z2 [CEA]4 | z2 [B,EG]4 | z2 [CEA]4 | z2 [B,EG]4 | z2 [CEA]4 | z2 [CEA]4 | z2 [_B,DG]4 | %7
 z2 [CFA]4 | x6 | x6 | z2 [FA]4 | x6 | z2 [FA]4 | x6 | x6 | x6 | x6 | x6 | x6 | x6 | z2 [CEA]4 | %21
 z2 [B,EG]4 | z2 [CEA]4 | z2 [B,EG]4 | z2 [CEA]4 | z2 [B,EG]4 | z2 [A,CF]4 | z2 [B,EG]4 | %28
 z2 [CEA]4 | z2 [B,EG]4 | z2 [CEA]4 | z2 [CEA]4 | z2 [_B,DG]4 | x6 | x6 | x6 | x6 | x6 | x6 | %39
 z2 [CEA]4 | x6 | x6 | x6 | x6 | x6 | x6 | x6 | x6 | z2 [CEA]4 | z2 [B,EG]4 | z2 [CEA]4 | %51
 z2 [B,EG]4 | z2 [CEA]4 | z2 [B,EG]4 | z2 [A,CF]4 | z2 [B,EG]4 | z2 [CEA]4 | z2 [B,EG]4 | x6 | %59
 x6 |] %60
V:3
 A,,6 | D,,6 | A,,6 | D,,6 | A,,6 | C,6 | G,,6 | D,,6 | z2 [A,CE]4 | z2 [G,B,E]4 | z2 [D,G,B,]4 | %11
 z2 [A,CF]4 | z2 [D,G,B,]4 | z2 [A,CF]4 | z2 [B,EG]4 | z2 [A,CF]4 | z2 [A,CE]4 | z2 [A,CF]4 | %18
 z2 [A,CF]4 | z2 [B,EG]4 |!pp! C,,6 | E,,6 | C,,6 | E,,6 | C,,6 | E,,6 | A,,6 |!pp! D,,6 | A,,6 | %29
 D,,6 |!p! A,,6 | C,6 | G,,6 | z2 [A,DF]4 | z2 [A,CE]4 | z2 [G,B,E]4 | z2 [A,CF]4 | z2 [G,B,E]4 | %38
 z2 [A,CF]4 | D,,6 | z2 [A,CE]4 | z2 [A,CF]4 | z2 [B,EG]4 | z2 [A,CF]4 | z2 [A,CE]4 | z2 [A,CF]4 | %46
 z2 [A,CF]4 | z2 [B,EG]4 |!pp! C,,6 | E,,6 | C,,6 | E,,6 | C,,6 | E,,6 | A,,6 |!pp! D,,6 | A,,6 | %57
 D,,6 | [A,,,E,,A,,]6- | [A,,,E,,A,,]6 |] %60
V:4
 x6 | x6 | x6 | x6 | x6 | x6 | x6 | x6 | A,,6 | E,,6 | G,,6 | D,,6 | G,,6 | D,,6 | G,,,6 | G,,,6 | %16
 G,,,6 | D,,6 | G,,,6 | G,,,6 | x6 | x6 | x6 | x6 | x6 | x6 | x6 | x6 | x6 | x6 | x6 | x6 | x6 | %33
 D,,6 | A,,6 | E,,6 | E,,6 | E,,6 | D,,6 | x6 | D,,6 | D,,6 | G,,,6 | G,,,6 | G,,,6 | D,,6 | %46
 G,,,6 | G,,,6 | x6 | x6 | x6 | x6 | x6 | x6 | x6 | x6 | x6 | x6 | x6 | x6 |] %60

